exported-svg/arrow-up-left.svg

<svg height="24" viewBox="0 0 24 24" width="24" xmlns="http://www.w3.org/2000/svg"><path d="m7 7.70710678v7.79289322c0 .2761424-.22385763.5-.5.5s-.5-.2238576-.5-.5v-9c0-.27614237.22385763-.5.5-.5h9c.2761424 0 .5.22385763.5.5s-.2238576.5-.5.5h-7.79289322l11.14644662 11.1464466c.1952621.1952622.1952621.5118446 0 .7071068-.1952622.1952621-.5118446.1952621-.7071068 0z"/></svg>

<?xml version="1.0" encoding="UTF-8"?>
<svg width="24px" height="24px" viewBox="0 0 24 24" version="1.1" xmlns="http://www.w3.org/2000/svg" xmlns:xlink="http://www.w3.org/1999/xlink">
    <!-- Generator: Sketch 55.2 (78181) - https://sketchapp.com -->
    <title>arrow-up-left</title>
    <desc>Created with Sketch.</desc>
    <g id="arrow-up-left" stroke="none" stroke-width="1" fill="none" fill-rule="evenodd">
        <path d="M7,7.70710678 L7,15.5 C7,15.7761424 6.77614237,16 6.5,16 C6.22385763,16 6,15.7761424 6,15.5 L6,6.5 C6,6.22385763 6.22385763,6 6.5,6 L15.5,6 C15.7761424,6 16,6.22385763 16,6.5 C16,6.77614237 15.7761424,7 15.5,7 L7.70710678,7 L18.8535534,18.1464466 C19.0488155,18.3417088 19.0488155,18.6582912 18.8535534,18.8535534 C18.6582912,19.0488155 18.3417088,19.0488155 18.1464466,18.8535534 L7,7.70710678 Z" id="Combined-Shape" fill="#000000" fill-rule="nonzero"></path>
    </g>
</svg>
